src/.vuepress/public/assets/websites/booth.svg

<svg width="32" height="32" viewBox="0 0 32 32" fill="none" xmlns="http://www.w3.org/2000/svg">
<rect width="32" height="32" rx="8" fill="white"/>
<path fill-rule="evenodd" clip-rule="evenodd" d="M6 9.77953C6 7.69215 7.69215 6 9.77953 6H17.5008C18.0592 6 18.5119 6.45267 18.5119 7.01106V9.28594C18.5119 11.5893 20.3791 13.4566 22.6825 13.4566H24.992C25.5238 13.4566 25.9598 13.8672 26 14.3887V22.2205C26 24.3078 24.3078 26 22.2205 26H9.77953C7.69215 26 6 24.3078 6 22.2205V9.77953ZM22.2053 19.2757C21.5764 20.365 20.6718 21.2695 19.5826 21.8984C18.4933 22.5273 17.2577 22.8584 15.9999 22.8584C14.7421 22.8584 13.5065 22.5273 12.4172 21.8984C11.3279 21.2695 10.4234 20.365 9.79452 19.2757L11.8831 18.0699C12.3003 18.7925 12.9004 19.3926 13.623 19.8099C14.3457 20.2271 15.1654 20.4467 15.9999 20.4467C16.8343 20.4467 17.6541 20.2271 18.3768 19.8099C19.0994 19.3926 19.6995 18.7925 20.1167 18.0699L22.2053 19.2757Z" fill="#6E52EF"/>
<path fill-rule="evenodd" clip-rule="evenodd" d="M23.4409 6C23.3013 6 23.19 6.11381 23.1703 6.25201C23.0597 7.02751 22.4463 7.64095 21.6708 7.75153C21.5326 7.77124 21.4188 7.88251 21.4188 8.02211V8.52764C21.4188 8.66724 21.5326 8.77851 21.6708 8.79821C22.4463 8.9088 23.0597 9.52224 23.1703 10.2977C23.19 10.4359 23.3013 10.5498 23.4409 10.5498L23.9464 10.5498C24.086 10.5498 24.1973 10.4359 24.217 10.2977C24.3276 9.52224 24.941 8.9088 25.7165 8.79821C25.8547 8.77851 25.9685 8.66724 25.9685 8.52764V8.02211C25.9685 7.88251 25.8547 7.77124 25.7165 7.75153C24.941 7.64095 24.3276 7.02751 24.217 6.25201C24.1973 6.11381 24.086 6 23.9464 6H23.4409Z" fill="#6E52EF"/>
</svg>

<svg xmlns="http://www.w3.org/2000/svg" width="32" height="32" fill="none" viewBox="0 0 32 32"><rect width="32" height="32" fill="#fff" rx="8"/><path fill="#6E52EF" fill-rule="evenodd" d="M6 9.78A3.78 3.78 0 0 1 9.78 6h7.72c.56 0 1.012.453 1.012 1.011v2.275a4.17 4.17 0 0 0 4.17 4.17h2.31c.532 0 .968.411 1.008.933v7.832A3.78 3.78 0 0 1 22.22 26H9.78A3.78 3.78 0 0 1 6 22.22zm16.205 9.496a7.166 7.166 0 0 1-12.41 0l2.088-1.206a4.755 4.755 0 0 0 8.234 0zM23.44 6c-.139 0-.25.114-.27.252a1.77 1.77 0 0 1-1.5 1.5c-.137.02-.251.13-.251.27v.506c0 .14.114.25.252.27a1.77 1.77 0 0 1 1.5 1.5c.019.138.13.252.27.252h.505c.14 0 .251-.114.271-.252a1.77 1.77 0 0 1 1.5-1.5c.138-.02.252-.13.252-.27v-.506c0-.14-.114-.25-.253-.27a1.77 1.77 0 0 1-1.499-1.5c-.02-.138-.131-.252-.27-.252z" clip-rule="evenodd"/></svg>
